img/form.svg

<svg xmlns="http://www.w3.org/2000/svg" viewBox="0 0 83 76"><path d="M57 0H17c-2.2 0-4 1.8-4 4v4H9c-2.2 0-4 1.8-4 4v60c0 2.2 1.8 4 4 4h40c2.2 0 4-1.8 4-4v-4h4c2.2 0 4-1.8 4-4V4c0-2.2-1.8-4-4-4zm-8 72H9V12h4v52c0 2.2 1.8 4 4 4h32v4zm8-8H17V4h40v60zM30 11h-8V9h8v2zm22 0H33V9h19v2zm0 6H33v-2h19v2zm0 6H33v-2h19v2zm0 6H33v-2h19v2zm0 6H33v-2h19v2zm0 6H33v-2h19v2zm0 6H33v-2h19v2zm0 6H33v-2h19v2zm0 6H33v-2h19v2zM30 17h-8v-2h8v2zm0 12h-8v-2h8v2zm0 6h-8v-2h8v2zm0 6h-8v-2h8v2zm0 12h-8v-2h8v2zm0 6h-8v-2h8v2zM73 0h-4c-2.2 0-4 1.8-4 4v58l6 14 6-14V4c0-2.2-1.8-4-4-4zm0 4v5h-4V4h4zm-2 57h-2V11h4v50h-2z"/></svg>

<?xml version="1.0" encoding="utf-8"?>
<!-- Generator: Adobe Illustrator 19.2.0, SVG Export Plug-In . SVG Version: 6.00 Build 0)  -->
<svg version="1.1" id="Capa_1" xmlns="http://www.w3.org/2000/svg" xmlns:xlink="http://www.w3.org/1999/xlink" x="0px" y="0px"
	 viewBox="0 0 83 76" style="enable-background:new 0 0 83 76;" xml:space="preserve">
<path d="M57,0H17c-2.2,0-4,1.8-4,4v4H9c-2.2,0-4,1.8-4,4v60c0,2.2,1.8,4,4,4h40c2.2,0,4-1.8,4-4v-4h4c2.2,0,4-1.8,4-4V4
	C61,1.8,59.2,0,57,0z M49,72H9V12h4v52c0,2.2,1.8,4,4,4h32V72z M57,64H17V4h40V64z M30,11h-8V9h8V11z M52,11H33V9h19V11z M52,17H33
	v-2h19V17z M52,23H33v-2h19V23z M52,29H33v-2h19V29z M52,35H33v-2h19V35z M52,41H33v-2h19V41z M52,47H33v-2h19V47z M52,53H33v-2h19
	V53z M52,59H33v-2h19V59z M30,17h-8v-2h8V17z M30,29h-8v-2h8V29z M30,35h-8v-2h8V35z M30,41h-8v-2h8V41z M30,53h-8v-2h8V53z M30,59
	h-8v-2h8V59z M73,0h-4c-2.2,0-4,1.8-4,4v57c0,0.3,0,1,0,1l6,14l6-14c0,0,0-0.7,0-1V4C77,1.8,75.2,0,73,0z M73,4v5h-4V4H73z M71,61
	h-2V11h4v50H71z"/>
</svg>
